24x24/apps/re-volt.svg

<svg xmlns="http://www.w3.org/2000/svg" width="24" height="24" version="1.1">
 <path style="opacity:0.2" d="m 10.638776,2.5039044 c -0.05089,-0.00585 -0.103372,-0.00495 -0.155275,0.00293 -0.415231,0.062997 -0.6816609,0.5596535 -0.5976644,1.1132945 l 0.02051,0.137697 A 9.0001078,9.0001078 0 0 0 8.1699958,4.3662314 L 8.1006592,4.2461128 C 7.820259,3.761397 7.3020731,3.5397123 6.9385359,3.7500131 6.5750007,3.9603133 6.5077414,4.5201954 6.7881436,5.0049111 l 0.070313,0.121095 A 9.0001078,9.0001078 0 0 0 5.234414,6.575242 L 5.1250378,6.4941865 C 4.6741596,6.1620969 4.1104168,6.1677459 3.8613505,6.5059064 3.6122839,6.8440649 3.7747344,7.3828165 4.2256128,7.7149056 l 0.1132825,0.083985 A 9.0001078,9.0001078 0 0 0 3.5420108,9.4571125 L 3.4072435,9.4209795 C 2.8662246,9.2765072 2.3427322,9.4869007 2.2343779,9.8926644 2.1260237,10.298429 2.4746184,10.740392 3.0156373,10.884864 l 0.1328141,0.03516 a 9.0001078,9.0001078 0 0 0 -0.1484393,1.580097 9.0001078,9.0001078 0 0 0 0.021485,0.595711 L 2.892589,13.11536 c -0.553641,0.084 -0.9487501,0.486147 -0.8857527,0.901378 0.062997,0.41523 0.5596535,0.68166 1.1132946,0.597664 l 0.1376969,-0.02051 a 9.0001078,9.0001078 0 0 0 0.6084058,1.736349 l -0.1201187,0.06934 c -0.4847158,0.2804 -0.7064004,0.798585 -0.4960997,1.162123 0.2103004,0.363536 0.7701822,0.430794 1.2548978,0.150392 l 0.1210952,-0.07031 a 9.0001078,9.0001078 0 0 0 1.4492364,1.624043 L 5.9941885,19.3752 c -0.3320896,0.450878 -0.3264401,1.014621 0.01172,1.263687 0.3381575,0.249067 0.8769101,0.08662 1.2089987,-0.364262 l 0.083985,-0.113282 a 9.0001078,9.0001078 0 0 0 1.6582229,0.796884 l -0.036134,0.134767 c -0.1444723,0.541019 0.065921,1.064512 0.4716854,1.172866 0.4057637,0.108354 0.8477265,-0.240241 0.9921995,-0.781259 l 0.03516,-0.132815 a 9.0001078,9.0001078 0 0 0 1.580097,0.148439 9.0001078,9.0001078 0 0 0 0.59571,-0.02148 l 0.01953,0.128908 c 0.084,0.553641 0.486148,0.94875 0.901378,0.885753 0.415231,-0.063 0.68166,-0.559654 0.597664,-1.113295 l -0.02051,-0.137697 a 9.0001078,9.0001078 0 0 0 1.736349,-0.608406 l 0.06934,0.120119 c 0.280401,0.484716 0.798586,0.7064 1.162123,0.4961 0.363537,-0.210301 0.430794,-0.770183 0.150393,-1.254898 l -0.07031,-0.121095 a 9.0001078,9.0001078 0 0 0 1.624043,-1.449237 l 0.109377,0.08106 c 0.450877,0.332091 1.014619,0.32644 1.263687,-0.01172 0.249065,-0.338158 0.08662,-0.87691 -0.364263,-1.208998 l -0.113282,-0.08398 a 9.0001078,9.0001078 0 0 0 0.796884,-1.658223 l 0.134767,0.03613 c 0.541019,0.144473 1.064512,-0.06592 1.172866,-0.471685 0.108354,-0.405764 -0.240241,-0.847727 -0.781259,-0.992199 l -0.132814,-0.03516 a 9.0001078,9.0001078 0 0 0 0.148439,-1.580097 9.0001078,9.0001078 0 0 0 -0.02149,-0.59571 l 0.128908,-0.01953 c 0.553641,-0.084 0.94875,-0.486147 0.885753,-0.901377 -0.063,-0.415232 -0.559654,-0.68166 -1.113295,-0.597664 l -0.137697,0.02051 A 9.0001078,9.0001078 0 0 0 20.134005,8.6699958 l 0.120118,-0.069337 c 0.484716,-0.2804011 0.7064,-0.7985865 0.4961,-1.1621232 C 20.539922,7.0749986 19.98004,7.0077414 19.495325,7.2881431 L 19.37423,7.3584568 A 9.0001078,9.0001078 0 0 0 17.924996,5.7344115 l 0.08105,-0.1093762 C 18.338142,5.1741581 18.33249,4.6104149 17.994332,4.3613485 17.656174,4.1122819 17.117422,4.2747324 16.785333,4.7256107 l -0.08399,0.1132826 A 9.0001078,9.0001078 0 0 0 15.043125,4.0420088 L 15.07926,3.9072415 C 15.223731,3.3662226 15.013338,2.8427301 14.607573,2.7343759 14.201809,2.6260216 13.759846,2.9746163 13.615374,3.5156353 l -0.03516,0.1328141 A 9.0001078,9.0001078 0 0 0 12.00012,3.5000101 9.0001078,9.0001078 0 0 0 11.40441,3.5214948 L 11.384878,3.3925869 C 11.311381,2.908151 10.995023,2.5448749 10.638776,2.5039044 Z"/>
 <path style="fill:#4f4f4f" d="M 10.483736,2.0068418 C 10.068515,2.0698377 9.8018601,2.5662531 9.8858546,3.119881 L 10.649258,8.1516544 8.1009326,3.7461027 C 7.820539,3.2613985 7.3020536,3.0402606 6.9385249,3.2505563 6.5749982,3.4608515 6.5080534,4.0206098 6.7884486,4.5053137 L 9.5248383,9.2357562 5.1245053,5.9947419 C 4.673638,5.6626603 4.110293,5.6675453 3.8612326,6.0056968 3.6121718,6.3438473 3.7745977,6.8832904 4.2254653,7.215371 L 8.324575,10.234525 3.4069908,8.9209664 C 2.8659848,8.7764976 2.3428931,8.9866131 2.2345414,9.3923673 2.1261897,9.798122 2.4741243,10.240656 3.0151304,10.385125 l 5.2806809,1.410219 -5.4035942,0.819815 c -0.5536279,0.08399 -0.9486132,0.48589 -0.8856173,0.901111 0.062996,0.415221 0.5594113,0.681876 1.1130392,0.597882 l 5.0317741,-0.763404 -4.4055524,2.548326 c -0.4847043,0.280393 -0.7058421,0.798878 -0.4955464,1.162407 0.2102954,0.363528 0.7700533,0.430472 1.2547574,0.150077 L 9.2355143,14.475168 5.9945,18.875501 c -0.3320816,0.450867 -0.3271961,1.014212 0.010955,1.263272 0.3381495,0.249061 0.8775936,0.08664 1.2096742,-0.364232 l 3.0191518,-4.09911 -1.3135584,4.917584 c -0.1444688,0.541006 0.065647,1.064098 0.4714014,1.172449 0.4057542,0.108352 0.848288,-0.239582 0.992757,-0.780588 l 1.410223,-5.280681 0.819814,5.403594 c 0.08399,0.553628 0.48589,0.948613 0.901111,0.885617 0.415221,-0.063 0.681876,-0.559411 0.597881,-1.113039 l -0.763403,-5.031774 2.548325,4.405553 c 0.280394,0.484704 0.798879,0.705841 1.162408,0.495546 0.363528,-0.210296 0.430471,-0.770054 0.150076,-1.254758 l -2.73639,-4.730442 4.400334,3.241014 c 0.450867,0.332083 1.014211,0.327196 1.263273,-0.01095 0.249059,-0.33815 0.08664,-0.877593 -0.364234,-1.209674 l -4.099109,-3.019152 4.917584,1.313559 c 0.541006,0.144468 1.064098,-0.06565 1.172449,-0.471402 0.108352,-0.405754 -0.239583,-0.848288 -0.780588,-0.992757 l -5.280682,-1.410222 5.403594,-0.819814 c 0.553628,-0.08399 0.948613,-0.48589 0.885618,-0.901111 -0.063,-0.415221 -0.559412,-0.681876 -1.11304,-0.5978815 L 15.848352,10.649499 20.253904,8.1011745 C 20.738609,7.8207803 20.959746,7.302295 20.74945,6.9387668 20.539155,6.5752385 19.979396,6.5082953 19.494692,6.7886905 L 14.76425,9.5250802 18.005264,5.1247467 C 18.337347,4.6738799 18.33246,4.1105351 17.99431,3.8614746 17.65616,3.6124139 17.116717,3.7748397 16.784636,4.2257073 L 13.765484,8.3248164 15.079042,3.4072328 C 15.223511,2.8662268 15.013396,2.3431351 14.607641,2.2347834 14.201887,2.1264317 13.759353,2.4743663 13.614884,3.0153724 L 12.204662,8.2960527 11.384847,2.8924591 C 11.300852,2.3388312 10.898957,1.9438459 10.483736,2.0068418 Z"/>
 <circle style="fill:#4f4f4f" cx="12" cy="12" r="9"/>
 <circle style="opacity:0.3" cx="12" cy="12" r="6"/>
 <circle style="opacity:0.2" cx="12" cy="12.5" r="4.5"/>
 <circle style="fill:#7a7a7a" cx="12" cy="12" r="5"/>
 <path style="opacity:0.2" d="m 12.99987,4.99996 -0.603363,5.5 h 3.603328 L 10.999894,19.5 11.741697,13.500072 H 7.9999293 Z"/>
 <path style="fill:#ff8602" d="M 12.99987,4.5 12.396507,10 h 3.603328 l -4.999941,9.00004 0.741803,-5.999928 H 7.9999293 Z"/>
 <path style="opacity:0.1;fill:#f4f4f7" d="m 10.63857,2.0041482 c -0.05089,-0.00585 -0.103368,-0.00494 -0.155271,0.00293 -0.415231,0.062997 -0.6816464,0.5596271 -0.5976499,1.1132681 l 0.00976,0.062499 C 9.9638881,2.826357 10.183123,2.5526127 10.483293,2.507072 c 0.0519,-0.00787 0.104379,-0.00878 0.155271,-0.00293 0.356248,0.040971 0.672588,0.4042255 0.746085,0.8886614 l 0.01953,0.1289048 a 9.0001078,9.0001078 0 0 1 0.595698,-0.021484 9.0001078,9.0001078 0 0 1 1.580059,0.1484358 l 0.03515,-0.132811 C 13.759568,2.9748302 14.201507,2.626254 14.607272,2.7346084 14.857055,2.80131 15.032017,3.026099 15.096524,3.3146796 15.19461,2.8079984 14.989645,2.3367222 14.607272,2.2346143 14.201507,2.1262599 13.759568,2.4748361 13.615096,3.015855 l -0.03515,0.132811 A 9.0001078,9.0001078 0 0 0 11.999882,3.0002302 9.0001078,9.0001078 0 0 0 11.404186,3.0217144 L 11.384655,2.8928096 C 11.311158,2.4083737 10.994818,2.0451187 10.63857,2.0041482 Z M 7.2343134,3.1711267 C 7.1302296,3.1723467 7.0293028,3.1976517 6.9384184,3.2502277 6.6612311,3.4105766 6.5582994,3.7740217 6.6483828,4.1525608 6.6948038,3.9801135 6.7906671,3.8356938 6.9384184,3.7502218 7.3019556,3.539921 7.820114,3.7615938 8.1005142,4.2463097 l 0.069335,0.1201158 A 9.0001078,9.0001078 0 0 1 9.9061568,3.7580338 L 9.8856471,3.6203401 C 9.8669723,3.4972443 9.8679873,3.3781972 9.8817471,3.2648756 A 9.0001078,9.0001078 0 0 0 8.1698533,3.866431 L 8.1005142,3.7463152 C 7.8902141,3.3827783 7.5465642,3.1674759 7.2343134,3.1711267 Z m 7.8876026,0.4013624 c -4.34e-4,0.1086839 -0.01254,0.2210024 -0.04297,0.334957 l -0.03613,0.134764 a 9.0001078,9.0001078 0 0 1 1.658183,0.7968656 l 0.08399,-0.1132799 c 0.332088,-0.4508783 0.870811,-0.6133202 1.20897,-0.3642535 0.108834,0.08016 0.179949,0.1950709 0.219724,0.326168 0.08551,-0.3314735 0.0139,-0.6540929 -0.219724,-0.8261621 -0.338159,-0.2490666 -0.876882,-0.086625 -1.20897,0.3642535 l -0.08398,0.1132799 A 9.0001078,9.0001078 0 0 0 15.121916,3.5724891 Z M 6.6815854,4.7629047 A 9.0001078,9.0001078 0 0 0 5.234337,6.0753894 L 5.1249633,5.9943354 C 4.6740851,5.6622458 4.1103726,5.6678938 3.8613063,6.0060543 c -0.1289671,0.1750989 -0.145903,0.4037512 -0.071288,0.629875 0.018232,-0.045531 0.041472,-0.0894 0.071288,-0.1298809 0.2490663,-0.3381605 0.8127788,-0.3438085 1.263657,-0.011719 L 5.234337,6.5753835 A 9.0001078,9.0001078 0 0 1 6.8583413,5.1261816 L 6.7880296,5.0050896 C 6.7421482,4.9257764 6.7090756,4.8443819 6.6815854,4.7629047 Z M 18.128716,5.4211002 c -0.03415,0.06947 -0.07445,0.1381228 -0.123045,0.2040991 l -0.08105,0.1093737 a 9.0001078,9.0001078 0 0 1 1.449202,1.6240043 l 0.121092,-0.070312 c 0.484715,-0.2804017 1.044567,-0.2131485 1.254868,0.1503888 0.01206,0.020855 0.01809,0.043629 0.02735,0.065429 0.07119,-0.1957742 0.07008,-0.3970108 -0.02735,-0.5654228 C 20.539478,6.575123 19.979626,6.5078698 19.494911,6.7882715 l -0.121092,0.070312 A 9.0001078,9.0001078 0 0 0 18.128716,5.4211002 Z M 4.1474358,7.6476364 A 9.0001078,9.0001078 0 0 0 3.5419741,8.9571909 L 3.4072101,8.9210564 C 2.8661912,8.7765841 2.3427266,8.9869666 2.2343724,9.3927303 2.1980073,9.5289102 2.2168611,9.668232 2.2734344,9.799952 2.4326473,9.457428 2.9102461,9.2883425 3.4072101,9.4210505 l 0.134764,0.036135 A 9.0001078,9.0001078 0 0 1 4.3388397,7.7990016 L 4.2255598,7.7150186 C 4.1971907,7.6941238 4.1734906,7.6700641 4.1474358,7.6476364 Z M 20.298612,8.570477 c -0.01541,0.00975 -0.02893,0.021025 -0.04492,0.030275 l -0.120116,0.069335 a 9.0001078,9.0001078 0 0 1 0.608391,1.736307 l 0.137694,-0.02051 c 0.47735,-0.07242 0.911292,0.116189 1.062488,0.435541 0.04766,-0.107561 0.06843,-0.221565 0.05078,-0.337886 -0.063,-0.415231 -0.559627,-0.6816458 -1.113268,-0.5976493 l -0.137696,0.020508 A 9.0001078,9.0001078 0 0 0 20.298612,8.570477 Z m -17.2146402,2.33298 a 9.0001078,9.0001078 0 0 0 -0.083983,1.096667 9.0001078,9.0001078 0 0 0 0.00977,0.274411 9.0001078,9.0001078 0 0 1 0.1386703,-1.354476 z m 17.9118982,0.998035 -0.01758,0.003 a 9.0001078,9.0001078 0 0 1 0.01172,0.325191 9.0001078,9.0001078 0 0 0 0.0098,-0.229509 9.0001078,9.0001078 0 0 0 -0.0039,-0.09863 z M 3.0038945,12.59875 2.8925677,12.61535 c -0.5536409,0.084 -0.948729,0.486126 -0.8857317,0.901356 0.0087,0.05737 0.027489,0.11095 0.051757,0.162108 0.1225214,-0.276356 0.4354752,-0.503011 0.8339745,-0.56347 l 0.1289048,-0.01953 A 9.0001078,9.0001078 0 0 1 3.0038945,12.59875 Z m 17.9118975,0.998035 a 9.0001078,9.0001078 0 0 1 -0.06445,0.483392 l 0.132811,0.03515 c 0.359982,0.09613 0.631481,0.324685 0.743155,0.585931 0.01426,-0.03058 0.0292,-0.06045 0.03809,-0.09375 0.108354,-0.405764 -0.240222,-0.847703 -0.781241,-0.992176 z M 3.7021285,15.929765 C 3.277214,16.198413 3.0766695,16.649508 3.222642,16.995182 3.305287,16.768669 3.4862441,16.549793 3.7460733,16.399486 l 0.1201158,-0.06933 A 9.0001078,9.0001078 0 0 1 3.7021285,15.929765 Z m 16.1501995,0.922841 a 9.0001078,9.0001078 0 0 1 -0.191403,0.348629 l 0.113279,0.08398 c 0.217297,0.160047 0.366009,0.368634 0.435542,0.579095 0.124781,-0.310933 -0.0188,-0.720199 -0.357418,-1.011707 z M 5.872025,19.080118 c -0.1239926,0.252705 -0.1510788,0.516782 -0.08496,0.73339 0.038214,-0.148589 0.1041787,-0.298832 0.2070285,-0.438471 l 0.081054,-0.109374 A 9.0001078,9.0001078 0 0 1 5.872025,19.080118 Z m 11.446154,0.657219 a 9.0001078,9.0001078 0 0 1 -0.176756,0.136718 l 0.07031,0.121092 c 0.06627,0.114561 0.112513,0.233231 0.140623,0.350582 0.04851,-0.182027 0.03782,-0.395046 -0.03418,-0.608392 z m -8.439354,1.18944 c -4.295e-4,0.09002 0.00614,0.177023 0.024415,0.258786 0.006,-0.03099 0.00925,-0.06158 0.01758,-0.09277 L 8.956954,20.958026 A 9.0001078,9.0001078 0 0 1 8.87883,20.926777 Z m 5.239196,0.30859 a 9.0001078,9.0001078 0 0 1 -0.02442,0.0068 l 0.01172,0.07813 c 0.0054,-0.0279 0.0092,-0.05609 0.0127,-0.08496 z"/>
 <path style="opacity:0.2;fill:#f4f4f7" d="M 13 4.5 L 8 13 L 8.2949219 13 L 12.931641 5.1152344 L 13 4.5 z M 12.451172 10 L 12.396484 10.5 L 15.722656 10.5 L 16 10 L 12.451172 10 z M 11.679688 13.5 L 11 19 L 11.080078 18.857422 L 11.742188 13.5 L 11.679688 13.5 z"/>
</svg>

<svg xmlns="http://www.w3.org/2000/svg" width="24" height="24"><path style="opacity:.2" d="M10.639 2.504a.589.589 0 0 0-.155.003c-.416.063-.682.56-.598 1.113l.02.138a9 9 0 0 0-1.736.608l-.07-.12c-.28-.485-.798-.706-1.161-.496-.364.21-.431.77-.15 1.255l.07.121a9 9 0 0 0-1.625 1.45l-.109-.082c-.45-.332-1.015-.326-1.264.012-.249.338-.086.877.365 1.209l.113.084a9 9 0 0 0-.797 1.658l-.135-.036c-.54-.144-1.064.066-1.173.472-.108.405.24.847.782.992l.132.035A9 9 0 0 0 3 12.5a9 9 0 0 0 .021.596l-.128.02c-.554.083-.95.486-.886.9.063.416.56.682 1.113.598l.138-.02a9 9 0 0 0 .608 1.736l-.12.07c-.485.28-.706.798-.496 1.162.21.363.77.43 1.255.15l.121-.07a9 9 0 0 0 1.45 1.624l-.082.11c-.332.45-.326 1.014.012 1.263.338.249.877.087 1.209-.364l.084-.114a9 9 0 0 0 1.658.797l-.036.135c-.144.541.066 1.065.472 1.173.405.108.847-.24.992-.781l.035-.133A9 9 0 0 0 12 21.5a9 9 0 0 0 .596-.021l.02.129c.083.553.486.948.9.885.416-.063.682-.56.598-1.113l-.02-.138a9 9 0 0 0 1.736-.608l.07.12c.28.485.798.707 1.162.496.363-.21.43-.77.15-1.255l-.07-.12a9 9 0 0 0 1.624-1.45l.11.081c.45.332 1.014.326 1.263-.012.249-.338.087-.877-.364-1.209l-.114-.084a9 9 0 0 0 .797-1.658l.135.036c.541.145 1.065-.066 1.173-.471.108-.406-.24-.848-.781-.993l-.133-.035A9 9 0 0 0 21 12.5a9 9 0 0 0-.021-.596l.129-.02c.553-.083.948-.485.885-.9-.063-.416-.56-.682-1.113-.598l-.138.02a9 9 0 0 0-.608-1.736l.12-.07c.485-.28.707-.798.496-1.161-.21-.364-.77-.431-1.255-.15l-.12.07a9 9 0 0 0-1.45-1.625l.081-.109c.332-.45.326-1.015-.012-1.264-.338-.249-.877-.086-1.209.365l-.084.113a9 9 0 0 0-1.658-.797l.036-.135c.145-.54-.066-1.064-.471-1.173-.406-.108-.848.24-.993.782l-.035.132A9 9 0 0 0 12 3.5a9 9 0 0 0-.596.021l-.02-.128c-.073-.485-.389-.848-.745-.89z"/><path style="fill:#4f4f4f" d="M10.484 2.007c-.415.063-.682.56-.598 1.113l.763 5.032-2.548-4.406c-.28-.485-.799-.706-1.162-.495-.364.21-.43.77-.15 1.254l2.736 4.73-4.4-3.24c-.451-.332-1.015-.327-1.264.01-.249.339-.086.878.364 1.21l4.1 3.02L3.407 8.92c-.541-.145-1.064.066-1.172.471-.109.406.24.849.78.993l5.28 1.41-5.403.82c-.553.084-.948.486-.885.901.063.415.559.682 1.113.598l5.031-.763-4.405 2.548c-.485.28-.706.799-.496 1.162.21.364.77.431 1.255.15l4.73-2.736-3.24 4.4c-.333.451-.328 1.015.01 1.264.339.249.878.086 1.21-.364l3.02-4.1-1.314 4.918c-.145.541.065 1.064.471 1.172.406.109.848-.24.993-.78l1.41-5.28.82 5.403c.084.553.486.948.901.885.415-.063.682-.559.598-1.113l-.763-5.031 2.548 4.405c.28.485.799.706 1.162.496.364-.21.43-.77.15-1.255l-2.736-4.73 4.4 3.24c.451.333 1.014.328 1.264-.01.249-.339.086-.878-.365-1.21l-4.099-3.02 4.918 1.314c.54.145 1.064-.065 1.172-.471.109-.406-.24-.848-.78-.993l-5.281-1.41 5.404-.82c.553-.084.948-.486.885-.901-.063-.415-.56-.682-1.113-.598l-5.032.763 4.406-2.548c.485-.28.706-.799.495-1.162-.21-.364-.77-.43-1.254-.15l-4.73 2.736 3.24-4.4c.332-.451.327-1.014-.01-1.264-.339-.249-.878-.086-1.21.365l-3.02 4.099 1.314-4.918c.145-.54-.066-1.064-.471-1.172-.406-.109-.849.24-.993.78l-1.41 5.281-.82-5.404c-.084-.553-.486-.948-.901-.885z"/><circle style="fill:#4f4f4f" cx="12" cy="12" r="9"/><circle style="opacity:.3" cx="12" cy="12" r="6"/><circle style="opacity:.2" cx="12" cy="12.5" r="4.5"/><circle style="fill:#7a7a7a" cx="12" cy="12" r="5"/><path style="opacity:.2" d="m13 5-.603 5.5H16l-5 9 .742-6H8z"/><path style="fill:#ff8602" d="m13 4.5-.603 5.5H16l-5 9 .742-6H8z"/><path style="opacity:.1;fill:#f4f4f7" d="M10.639 2.004a.59.59 0 0 0-.156.003c-.415.063-.681.56-.597 1.113l.01.063c.068-.357.287-.63.587-.676a.59.59 0 0 1 .156-.003c.356.041.672.404.746.889l.02.129A9 9 0 0 1 12 3.5a9 9 0 0 1 1.58.149l.035-.133c.145-.541.587-.89.992-.781.25.066.425.291.49.58.098-.507-.107-.978-.49-1.08-.405-.109-.847.24-.992.78l-.035.134A9 9 0 0 0 12 3a9 9 0 0 0-.596.022l-.02-.13c-.073-.484-.39-.847-.745-.888zM7.234 3.171a.6.6 0 0 0-.296.08c-.277.16-.38.523-.29.902a.641.641 0 0 1 .29-.403c.364-.21.882.012 1.163.496l.069.12a9 9 0 0 1 1.736-.608l-.02-.138a1.309 1.309 0 0 1-.004-.355 9 9 0 0 0-1.712.601l-.07-.12c-.21-.363-.553-.579-.866-.575zm7.888.401c0 .11-.013.221-.043.335l-.036.135a9 9 0 0 1 1.658.797l.084-.113c.332-.451.87-.614 1.209-.364.109.08.18.195.22.326.085-.332.014-.654-.22-.826-.338-.25-.877-.087-1.209.364l-.084.113a9 9 0 0 0-1.58-.767zm-8.44 1.19a9 9 0 0 0-1.448 1.313l-.109-.08c-.45-.333-1.015-.327-1.264.011-.129.175-.146.404-.071.63a.584.584 0 0 1 .071-.13c.25-.338.813-.344 1.264-.012l.11.081a9 9 0 0 1 1.623-1.449l-.07-.12a1.32 1.32 0 0 1-.106-.243zm11.447.66c-.034.069-.075.137-.123.203l-.081.11a9 9 0 0 1 1.449 1.624l.12-.07c.486-.281 1.045-.214 1.256.15.012.02.018.043.027.065.071-.196.07-.397-.027-.565-.21-.364-.77-.431-1.255-.15l-.121.07a9 9 0 0 0-1.245-1.438zM4.147 7.647a9 9 0 0 0-.605 1.31l-.135-.037c-.54-.144-1.064.066-1.173.472a.618.618 0 0 0 .04.407c.159-.343.636-.512 1.133-.379l.135.036A9 9 0 0 1 4.339 7.8l-.113-.084c-.029-.02-.053-.045-.079-.067zM20.3 8.57c-.016.01-.03.022-.045.03l-.12.07a9 9 0 0 1 .608 1.736l.138-.02c.477-.073.911.116 1.062.435a.603.603 0 0 0 .05-.337c-.062-.416-.559-.682-1.112-.598l-.138.02a9 9 0 0 0-.443-1.336zM3.084 10.903A9 9 0 0 0 3 12a9 9 0 0 0 .01.275 9 9 0 0 1 .138-1.355zm17.912.998-.018.003a9 9 0 0 1 .012.326A9 9 0 0 0 21 12a9 9 0 0 0-.004-.098zM3.004 12.6l-.111.016c-.554.084-.95.486-.886.902a.58.58 0 0 0 .052.162c.122-.277.435-.503.834-.564l.128-.02a9 9 0 0 1-.017-.496zm17.912.998a9 9 0 0 1-.065.483l.133.035c.36.096.632.325.743.586.015-.03.03-.06.038-.093.109-.406-.24-.848-.78-.993zM3.702 15.93c-.425.268-.625.72-.48 1.065.083-.226.264-.445.524-.596l.12-.069a9 9 0 0 1-.164-.4zm16.15.923a9 9 0 0 1-.191.348l.113.084c.218.16.366.369.436.58.125-.312-.02-.72-.358-1.012zM5.872 19.08c-.124.253-.151.517-.085.734a1.27 1.27 0 0 1 .207-.439l.081-.11a9 9 0 0 1-.203-.185zm11.446.657a9 9 0 0 1-.177.137l.07.121c.067.115.113.233.141.35a1.064 1.064 0 0 0-.034-.608zm-8.44 1.19c0 .09.007.177.025.259.006-.031.01-.062.018-.093l.036-.135a9 9 0 0 1-.078-.031zm5.24.308a9 9 0 0 1-.024.007l.011.078c.006-.028.01-.056.013-.085z"/><path style="opacity:.2;fill:#f4f4f7" d="M13 4.5 8 13h.295l4.637-7.885L13 4.5zm-.549 5.5-.055.5h3.327L16 10h-3.549zm-.771 3.5L11 19l.08-.143.662-5.357h-.062z"/></svg>
